hero/solid/arrow-down.svg

<svg width="24" height="24" viewBox="0 0 24 24" fill="none" xmlns="http://www.w3.org/2000/svg">
<path fill-rule="evenodd" clip-rule="evenodd" d="M12 2.25C12.4142 2.25 12.75 2.58579 12.75 3L12.75 19.1893L18.9697 12.9697C19.2626 12.6768 19.7374 12.6768 20.0303 12.9697C20.3232 13.2626 20.3232 13.7374 20.0303 14.0303L12.5303 21.5303C12.2374 21.8232 11.7626 21.8232 11.4697 21.5303L3.96967 14.0303C3.67678 13.7374 3.67678 13.2626 3.96967 12.9697C4.26256 12.6768 4.73744 12.6768 5.03033 12.9697L11.25 19.1893L11.25 3C11.25 2.58579 11.5858 2.25 12 2.25Z" fill="#0F172A"/>
</svg>

<svg viewBox="0 0 24 24" xmlns="http://www.w3.org/2000/svg"><path fill-rule="evenodd" d="M12 2.25v0c.41 0 .75.33.75.75v16.19l6.22-6.22v0c.28-.31.75-.32 1.06-.04 .3.28.31.75.03 1.06 -.02.01-.03.02-.04.03l-7.5 7.5v0c-.3.29-.77.29-1.06 0l-7.5-7.5H3.95c-.31-.29-.32-.76-.04-1.06 .28-.31.75-.32 1.06-.04 .01.01.02.02.03.03l6.22 6.22V2.98v0c0-.42.33-.75.75-.75Z"/></svg>
